src/pos-icons/bank-plus.svg

<svg height="24" viewBox="0 0 24 24" width="24" xmlns="http://www.w3.org/2000/svg"><path d="m17 14h2v3h3v2h-3v3h-2v-3h-3v-2h3zm-5.5-13 9.5 5v2h-19v-2zm4.5 9h3v2.08l-1-.08c-.7 0-1.37.12-2 .34zm-14 12v-3h10.08c.19 1.14.71 2.17 1.45 3zm8-12h3v4.68c-.46.69-.78 1.47-.92 2.32h-2.08zm-6 0h3v7h-3z"/></svg>

<?xml version="1.0" encoding="UTF-8"?><!DOCTYPE svg PUBLIC "-//W3C//DTD SVG 1.1//EN" "http://www.w3.org/Graphics/SVG/1.1/DTD/svg11.dtd"><svg xmlns="http://www.w3.org/2000/svg" xmlns:xlink="http://www.w3.org/1999/xlink" version="1.1" id="mdi-bank-plus" width="24" height="24" viewBox="0 0 24 24"><path d="M17,14H19V17H22V19H19V22H17V19H14V17H17V14M11.5,1L21,6V8H2V6L11.5,1M16,10H19V12.08L18,12C17.3,12 16.63,12.12 16,12.34V10M2,22V19H12.08C12.27,20.14 12.79,21.17 13.53,22H2M10,10H13V14.68C12.54,15.37 12.22,16.15 12.08,17H10V10M4,10H7V17H4V10Z" /></svg>
